src/main/resources/img/object/type/TypeCollection.svg

<svg width="16" height="16" version="1.1" viewBox="0 0 16 16"  xmlns="http://www.w3.org/2000/svg"><path d="m4.5996 6.0996c-2.0997 0.42879-3.6057 2.2788-3.5996 4.4219 0.011839 2.4815 2.0302 4.485 4.5117 4.4785 0.16331-0.003498 0.32632-0.015886 0.48828-0.037109v-5.5625h-1.4004z" fill="#589bc0"/><path d="m5 2v7h2.9453l2.8008-4.4004h0.51562l0.73828 1.207v-3.8066h-7z" fill="#d67876"/><path d="m11 5-2.5 4h5l-2.5-4z" fill="#5eba6a"/><g fill="#999"><path d="m7 10v6h9v-6h-9zm1 1h1v4h-1v-4zm2 0h1v4h-1v-4zm2 0h1v4h-1v-4zm2 0h1v4h-1v-4z"/></g></svg>

<svg width="16" height="16" xmlns="http://www.w3.org/2000/svg"><path d="M4.6 6.1A4.5 4.5 0 0 0 1 10.52 4.5 4.5 0 0 0 5.512 15 4.5 4.5 0 0 0 6 14.963V9.4H4.6z" fill="#589bc0"/><path d="M5 2v7h2.945l2.801-4.4h.516L12 5.807V2H5z" fill="#d67876"/><path d="M11 5 8.5 9h5L11 5z" fill="#5eba6a"/><path d="M7 10v6h9v-6H7zm1 1h1v4H8v-4zm2 0h1v4h-1v-4zm2 0h1v4h-1v-4zm2 0h1v4h-1v-4z" fill="#999"/></svg>
